img/fab/test-drive.svg

<svg width="163" height="124" viewBox="0 0 163 124" fill="none" xmlns="http://www.w3.org/2000/svg">
<path d="M140.277 3H21.4436C10.6281 3 1.86035 12.0036 1.86035 23.11V101.19C1.86035 112.296 10.6281 121.3 21.4436 121.3H140.277C151.093 121.3 159.86 112.296 159.86 101.19V23.11C159.86 12.0036 151.093 3 140.277 3Z" fill="#F2F2F2" fill-opacity="0.3"/>
<path d="M140.917 3H22.0832C11.2677 3 2.5 12.0036 2.5 23.11V101.19C2.5 112.296 11.2677 121.3 22.0832 121.3H140.917C151.732 121.3 160.5 112.296 160.5 101.19V23.11C160.5 12.0036 151.732 3 140.917 3Z" stroke="url(#paint0_linear_512_1528)" stroke-width="5" stroke-miterlimit="10"/>
<path d="M62.0561 43.8496V27.4696H56.2321V24.2496H71.5481V27.4696H65.7241V43.8496H62.0561ZM84.2073 36.5416C84.2073 36.9056 84.1793 37.2136 84.1233 37.4936H73.6233C73.8473 40.2656 75.2193 41.4976 77.6553 41.4976C79.3633 41.4976 80.3433 40.7976 80.8193 39.3416H84.0113C83.2553 42.5616 80.7913 44.2136 77.4313 44.2136C73.4833 44.2136 70.2353 41.8616 70.2353 36.6256C70.2353 31.3616 73.4273 29.0096 77.3753 29.0096C81.4353 29.0096 84.2073 31.4176 84.2073 36.5416ZM73.6233 35.5056H80.8193C80.7353 33.1816 79.5873 31.7536 77.3193 31.7536C75.1633 31.7536 73.8473 33.0416 73.6233 35.5056ZM91.8419 44.1296C88.0059 44.1296 85.6819 42.4776 85.6539 39.2576H88.8459C89.0419 40.7136 90.0499 41.4416 91.8979 41.4416C93.4939 41.4416 94.5299 40.8536 94.5299 39.6496C94.5299 38.7816 94.0259 38.3896 92.8219 38.0816L90.1339 37.4936C87.4179 36.8776 86.0739 35.4776 86.0739 33.3216C86.0739 30.6056 88.3139 29.0096 91.8699 29.0096C95.5659 29.0096 97.5819 30.7456 97.6659 33.8536H94.6979C94.5299 32.4256 93.6339 31.6976 91.9819 31.6976C90.4419 31.6976 89.4899 32.2856 89.4899 33.2656C89.4899 34.0776 90.1339 34.6376 91.2819 34.8616L94.0539 35.4776C96.6579 36.0656 98.2259 37.2136 98.2259 39.5656C98.2259 41.1056 97.6379 42.2256 96.4339 42.9816C95.2299 43.7376 93.6899 44.1296 91.8419 44.1296ZM107.245 41.1616H108.449V43.9616C107.973 44.0176 107.273 44.0456 106.349 44.0456C103.521 44.0456 101.841 42.7016 101.841 39.7616V32.0616H99.4046V29.2896H101.841V25.5656H105.425V29.2896H108.281V32.0616H105.425V39.2016C105.425 40.5176 105.929 41.1616 107.245 41.1616Z" fill="url(#paint1_linear_512_1528)"/>
<path d="M49.532 50.2496H56.644C62.72 50.2496 65.912 53.7496 65.912 60.0496C65.912 66.3496 62.72 69.8496 56.644 69.8496H49.532V50.2496ZM53.2 66.6296H56.28C60.508 66.6296 62.16 64.6696 62.16 60.0496C62.16 55.4296 60.508 53.4696 56.28 53.4696H53.2V66.6296ZM76.4886 55.1776C76.9086 55.1776 77.2726 55.2336 77.6086 55.3176V58.3416C77.1886 58.2856 76.7966 58.2576 76.4886 58.2576C73.9126 58.2576 72.0926 59.8256 72.0926 63.0736V69.8496H68.5086V55.2896H72.0926V58.7616H72.1766C72.7086 56.6336 74.1646 55.1776 76.4886 55.1776ZM81.4295 53.2456C80.3095 53.2456 79.3855 52.3776 79.3855 51.2856C79.3855 50.1656 80.3095 49.2976 81.4295 49.2976C82.5215 49.2976 83.4455 50.1656 83.4455 51.2856C83.4455 52.3776 82.5215 53.2456 81.4295 53.2456ZM79.6375 69.8496V55.2896H83.2215V69.8496H79.6375ZM90.4866 69.8496L85.1106 55.2896H88.7506L92.6706 66.4336H92.8106L96.7306 55.2896H100.399L94.9946 69.8496H90.4866ZM114.702 62.5416C114.702 62.9056 114.674 63.2136 114.618 63.4936H104.118C104.342 66.2656 105.714 67.4976 108.15 67.4976C109.858 67.4976 110.838 66.7976 111.314 65.3416H114.506C113.75 68.5616 111.286 70.2136 107.926 70.2136C103.978 70.2136 100.73 67.8616 100.73 62.6256C100.73 57.3616 103.922 55.0096 107.87 55.0096C111.93 55.0096 114.702 57.4176 114.702 62.5416ZM104.118 61.5056H111.314C111.23 59.1816 110.082 57.7536 107.814 57.7536C105.658 57.7536 104.342 59.0416 104.118 61.5056Z" fill="url(#paint2_linear_512_1528)"/>
<path d="M43.1315 99.1316C40.9501 99.1316 38.7331 97.5582 38.7331 93.6783V90.8355C38.7331 87.9211 40.074 86.4549 42.7739 86.4549H43.8109C44.5797 86.4549 44.9194 86.3298 45.1876 86.0616H46.8326C46.3498 87.4204 45.6346 87.8853 43.936 87.8853H42.7739C41.3256 87.8853 40.4495 88.7972 40.4495 90.1739V91.2646C40.8607 90.2633 42.0766 89.6196 43.4175 89.6196C45.4558 89.6196 47.5477 91.1215 47.5477 94.3578C47.5835 97.6118 45.2591 99.1674 43.1315 99.1316ZM43.1493 97.6476C44.5797 97.6476 45.8492 96.5748 45.8492 94.3578C45.8492 92.1228 44.5797 91.0143 43.1493 91.0143C41.7368 91.0143 40.4674 92.1228 40.4674 94.3578C40.4674 96.5033 41.6475 97.6476 43.1493 97.6476ZM57.4229 94.179C57.4229 94.4293 57.405 94.6617 57.3693 94.8584H50.4856C50.6107 96.8073 51.5584 97.7728 53.3285 97.7728C54.5264 97.7728 55.3131 97.3258 55.6886 96.2709H57.2977C56.7792 98.2555 55.2773 99.1853 53.2748 99.1853C51.9338 99.1853 50.8611 98.774 50.0207 97.9694C49.1804 97.1649 48.7513 95.949 48.7513 94.3578C48.7513 91.0321 50.7001 89.4945 53.1854 89.4945C55.7064 89.4945 57.4229 91.05 57.4229 94.179ZM50.4856 93.571H55.7064C55.6528 91.9082 54.7588 90.907 53.1675 90.907C51.6478 90.907 50.6465 91.801 50.4856 93.571ZM63.1579 99.1495C60.7263 99.1495 58.6165 97.5582 58.6165 94.3399C58.6165 91.05 60.7084 89.4945 63.1579 89.4945C64.1592 89.4945 65.0532 89.7627 65.822 90.2812C66.5908 90.8176 67.0557 91.7116 67.2166 92.981H65.6074C65.3393 91.6222 64.4095 91.0143 63.1401 91.0143C61.4236 91.0143 60.3329 92.248 60.3329 94.3399C60.3329 96.4139 61.4236 97.6297 63.1401 97.6297C64.4095 97.6297 65.3393 97.0039 65.6074 95.6272H67.2166C67.0736 96.8967 66.6087 97.8085 65.8399 98.3449C65.0532 98.8813 64.1592 99.1495 63.1579 99.1495ZM68.7541 98.9707V89.6733H76.5139V98.9707H74.7081V91.1037H70.56V98.9707H68.7541ZM77.7815 99.0422V97.6118C79.0868 97.6297 79.8556 96.9861 79.8556 95.0372V89.6733H87.3114V98.9707H85.5771L85.5234 91.1037H81.6614V95.1087C81.6614 97.737 80.535 99.0601 78.2643 99.0601C78.0497 99.0601 77.8888 99.0601 77.7815 99.0422ZM97.0114 92.7307V97.1827C97.0114 97.6655 97.2081 97.8979 97.6014 97.88V98.9528C97.4405 99.0422 97.2081 99.078 96.9399 99.078C95.9922 99.078 95.3307 98.6667 95.3307 97.8622V97.5225H95.2592C95.0804 97.88 94.7407 98.2376 94.2222 98.5952C93.7037 98.9707 92.9706 99.1495 92.0051 99.1495C90.1277 99.1495 88.8583 98.2913 88.8583 96.5569C88.8583 94.912 90.0026 94.1968 92.0051 93.9286L94.0434 93.6783C94.8837 93.5532 95.2055 93.3922 95.2055 93.1241V92.7843C95.2055 91.354 94.5082 90.8533 93.1494 90.8533C91.8442 90.8533 91.129 91.3003 91.129 92.4446V92.6413H89.4125V92.2837C89.4125 90.4242 90.7178 89.4945 93.2209 89.4945C95.8135 89.4945 97.0114 90.4957 97.0114 92.7307ZM95.2055 95.5199V94.5544C95.0804 94.7332 94.7228 94.8584 94.1506 94.9299L92.4342 95.1623C91.129 95.3233 90.6641 95.7166 90.6641 96.4497C90.6641 97.29 91.272 97.737 92.3269 97.737C94.2222 97.737 95.2055 96.3066 95.2055 95.5199ZM98.339 89.6733H106.081V91.1037H103.113V98.9707H101.307V91.1037H98.339V89.6733ZM107.621 98.9707V89.6733H109.427V93.4101H113.54V89.6733H115.345V98.9707H113.54V94.8584H109.427V98.9707H107.621ZM121.424 99.1495C119.028 99.1495 116.9 97.5403 116.9 94.322C116.9 91.1037 119.028 89.4945 121.424 89.4945C123.837 89.4945 125.965 91.1037 125.965 94.322C125.965 97.5403 123.837 99.1495 121.424 99.1495ZM121.424 97.6297C123.051 97.6297 124.249 96.4854 124.249 94.322C124.249 92.1586 123.051 91.0143 121.424 91.0143C119.797 91.0143 118.616 92.1586 118.616 94.322C118.616 96.4854 119.797 97.6297 121.424 97.6297Z" fill="url(#paint3_linear_512_1528)"/>
<defs>
<linearGradient id="paint0_linear_512_1528" x1="0.0654853" y1="62.15" x2="162.935" y2="62.15" gradientUnits="userSpaceOnUse">
<stop stop-color="#CCCCCC"/>
<stop offset="1" stop-color="#808080"/>
</linearGradient>
<linearGradient id="paint1_linear_512_1528" x1="82.5601" y1="17.8496" x2="82.5601" y2="55.8496" gradientUnits="userSpaceOnUse">
<stop stop-color="#575757"/>
<stop offset="1" stop-color="#CCCCCC"/>
</linearGradient>
<linearGradient id="paint2_linear_512_1528" x1="82.02" y1="43.8496" x2="82.02" y2="81.8496" gradientUnits="userSpaceOnUse">
<stop stop-color="#575757"/>
<stop offset="1" stop-color="#CCCCCC"/>
</linearGradient>
<linearGradient id="paint3_linear_512_1528" x1="82.5" y1="81.9707" x2="82.5" y2="105.971" gradientUnits="userSpaceOnUse">
<stop stop-color="#575757"/>
<stop offset="1" stop-color="#CCCCCC"/>
</linearGradient>
</defs>
</svg>

<svg width="163" height="124" fill="none" xmlns="http://www.w3.org/2000/svg"><path d="M140.277 3H21.444C10.628 3 1.86 12.004 1.86 23.11v78.08c0 11.106 8.768 20.11 19.584 20.11h118.833c10.816 0 19.583-9.004 19.583-20.11V23.11c0-11.106-8.767-20.11-19.583-20.11z" fill="#F2F2F2" fill-opacity=".3"/><path d="M140.917 3H22.083C11.268 3 2.5 12.004 2.5 23.11v78.08c0 11.106 8.768 20.11 19.583 20.11h118.834c10.815 0 19.583-9.004 19.583-20.11V23.11C160.5 12.004 151.732 3 140.917 3z" stroke="url(#paint0_linear_512_1528)" stroke-width="5" stroke-miterlimit="10"/><path d="M62.056 43.85V27.47h-5.824v-3.22h15.316v3.22h-5.824v16.38h-3.668zm22.151-7.308c0 .364-.028.672-.084.952h-10.5c.224 2.772 1.596 4.004 4.032 4.004 1.708 0 2.688-.7 3.164-2.156h3.192c-.756 3.22-3.22 4.872-6.58 4.872-3.948 0-7.196-2.352-7.196-7.588 0-5.264 3.192-7.616 7.14-7.616 4.06 0 6.832 2.408 6.832 7.532zm-10.584-1.036h7.196c-.084-2.324-1.232-3.752-3.5-3.752-2.156 0-3.472 1.288-3.696 3.752zm18.219 8.624c-3.836 0-6.16-1.652-6.188-4.872h3.192c.196 1.456 1.204 2.184 3.052 2.184 1.596 0 2.632-.588 2.632-1.792 0-.868-.504-1.26-1.708-1.568l-2.688-.588c-2.716-.616-4.06-2.016-4.06-4.172 0-2.716 2.24-4.312 5.796-4.312 3.696 0 5.712 1.736 5.796 4.844h-2.968c-.168-1.428-1.064-2.156-2.716-2.156-1.54 0-2.492.588-2.492 1.568 0 .812.644 1.372 1.792 1.596l2.772.616c2.604.588 4.172 1.736 4.172 4.088 0 1.54-.588 2.66-1.792 3.416-1.204.756-2.744 1.148-4.592 1.148zm15.403-2.968h1.204v2.8c-.476.056-1.176.084-2.1.084-2.828 0-4.508-1.344-4.508-4.284v-7.7h-2.436V29.29h2.436v-3.724h3.584v3.724h2.856v2.772h-2.856v7.14c0 1.316.504 1.96 1.82 1.96z" fill="url(#paint1_linear_512_1528)"/><path d="M49.532 50.25h7.112c6.076 0 9.268 3.5 9.268 9.8 0 6.3-3.192 9.8-9.268 9.8h-7.112v-19.6zM53.2 66.63h3.08c4.228 0 5.88-1.96 5.88-6.58s-1.652-6.58-5.88-6.58H53.2v13.16zm23.289-11.452c.42 0 .784.056 1.12.14v3.024a8.815 8.815 0 00-1.12-.084c-2.576 0-4.396 1.568-4.396 4.816v6.776h-3.584V55.29h3.584v3.472h.084c.532-2.128 1.988-3.584 4.312-3.584zm4.94-1.932c-1.12 0-2.044-.868-2.044-1.96 0-1.12.924-1.988 2.044-1.988 1.093 0 2.016.868 2.016 1.988 0 1.092-.923 1.96-2.015 1.96zm-1.79 16.604V55.29h3.584v14.56h-3.584zm10.849 0L85.11 55.29h3.64l3.92 11.144h.14l3.92-11.144h3.668l-5.404 14.56h-4.508zm24.215-7.308c0 .364-.028.672-.084.952h-10.5c.224 2.772 1.596 4.004 4.032 4.004 1.708 0 2.688-.7 3.164-2.156h3.192c-.756 3.22-3.22 4.872-6.58 4.872-3.948 0-7.196-2.352-7.196-7.588 0-5.264 3.192-7.616 7.14-7.616 4.06 0 6.832 2.408 6.832 7.532zm-10.584-1.036h7.196c-.084-2.324-1.232-3.752-3.5-3.752-2.156 0-3.472 1.288-3.696 3.752z" fill="url(#paint2_linear_512_1528)"/><path d="M43.132 99.132c-2.182 0-4.399-1.574-4.399-5.454v-2.843c0-2.914 1.341-4.38 4.04-4.38h1.038c.769 0 1.108-.125 1.377-.393h1.645c-.483 1.358-1.198 1.823-2.897 1.823h-1.162c-1.448 0-2.325.912-2.325 2.289v1.09c.412-1 1.628-1.644 2.968-1.644 2.039 0 4.13 1.501 4.13 4.738.037 3.254-2.288 4.81-4.415 4.774zm.017-1.484c1.43 0 2.7-1.073 2.7-3.29 0-2.235-1.27-3.344-2.7-3.344-1.412 0-2.682 1.109-2.682 3.344 0 2.145 1.18 3.29 2.682 3.29zm14.274-3.469c0 .25-.018.483-.054.68h-6.883c.125 1.948 1.072 2.914 2.843 2.914 1.197 0 1.984-.447 2.36-1.502h1.609c-.519 1.984-2.02 2.914-4.023 2.914-1.341 0-2.414-.411-3.254-1.216-.84-.804-1.27-2.02-1.27-3.611 0-3.326 1.95-4.864 4.434-4.864 2.521 0 4.238 1.556 4.238 4.685zm-6.937-.608h5.22c-.053-1.663-.947-2.664-2.539-2.664-1.52 0-2.52.894-2.681 2.664zm12.672 5.579c-2.432 0-4.541-1.592-4.541-4.81 0-3.29 2.091-4.846 4.54-4.846 1.002 0 1.896.269 2.665.787.769.537 1.234 1.43 1.395 2.7h-1.61c-.268-1.359-1.198-1.967-2.467-1.967-1.716 0-2.807 1.234-2.807 3.326 0 2.074 1.09 3.29 2.807 3.29 1.27 0 2.2-.626 2.467-2.003h1.61c-.143 1.27-.608 2.181-1.377 2.718-.787.536-1.68.805-2.682.805zm5.596-.18v-9.297h7.76v9.298h-1.806v-7.867H70.56v7.867h-1.806zm9.027.072v-1.43c1.306.018 2.075-.626 2.075-2.575v-5.364h7.455v9.298h-1.734l-.054-7.867h-3.862v4.005c0 2.628-1.126 3.951-3.397 3.951-.214 0-.375 0-.483-.018zm19.23-6.311v4.452c0 .482.197.715.59.697v1.073c-.16.09-.393.125-.661.125-.948 0-1.61-.411-1.61-1.216v-.34h-.07c-.18.358-.52.716-1.038 1.073-.518.376-1.251.555-2.217.555-1.877 0-3.147-.859-3.147-2.593 0-1.645 1.145-2.36 3.147-2.628l2.038-.25c.84-.126 1.162-.287 1.162-.555v-.34c0-1.43-.697-1.93-2.056-1.93-1.305 0-2.02.446-2.02 1.59v.197h-1.717v-.357c0-1.86 1.306-2.79 3.809-2.79 2.593 0 3.79 1.002 3.79 3.237zm-1.805 2.789v-.966c-.126.18-.483.304-1.055.376l-1.717.232c-1.305.161-1.77.555-1.77 1.288 0 .84.608 1.287 1.663 1.287 1.895 0 2.879-1.43 2.879-2.217zm3.133-5.847h7.742v1.43h-2.968v7.868h-1.806v-7.867h-2.968v-1.43zm9.282 9.298v-9.298h1.806v3.737h4.113v-3.737h1.805v9.298h-1.805v-4.113h-4.113v4.113h-1.806zm13.803.178c-2.396 0-4.524-1.609-4.524-4.827s2.128-4.828 4.524-4.828c2.413 0 4.541 1.61 4.541 4.828s-2.128 4.828-4.541 4.828zm0-1.52c1.627 0 2.825-1.144 2.825-3.307 0-2.163-1.198-3.308-2.825-3.308-1.627 0-2.808 1.145-2.808 3.308s1.181 3.308 2.808 3.308z" fill="url(#paint3_linear_512_1528)"/><defs><linearGradient id="paint0_linear_512_1528" x1=".065" y1="62.15" x2="162.935" y2="62.15" gradientUnits="userSpaceOnUse"><stop stop-color="#CCC"/><stop offset="1" stop-color="gray"/></linearGradient><linearGradient id="paint1_linear_512_1528" x1="82.56" y1="17.85" x2="82.56" y2="55.85" gradientUnits="userSpaceOnUse"><stop stop-color="#575757"/><stop offset="1" stop-color="#CCC"/></linearGradient><linearGradient id="paint2_linear_512_1528" x1="82.02" y1="43.85" x2="82.02" y2="81.85" gradientUnits="userSpaceOnUse"><stop stop-color="#575757"/><stop offset="1" stop-color="#CCC"/></linearGradient><linearGradient id="paint3_linear_512_1528" x1="82.5" y1="81.971" x2="82.5" y2="105.971" gradientUnits="userSpaceOnUse"><stop stop-color="#575757"/><stop offset="1" stop-color="#CCC"/></linearGradient></defs></svg>
